public/box2.svg

<svg width="365" height="294" viewBox="0 0 365 294" fill="none" xmlns="http://www.w3.org/2000/svg">
<rect y="0.154297" width="365" height="293" rx="18" fill="url(#paint0_linear_2023_3391)"/>
<path d="M43.1166 194.235C43.1146 194.235 43.0922 194.235 43.0908 194.235C39.7178 194.22 36.9865 191.462 37.0001 188.091C37.0136 184.732 39.7577 182 43.1166 182C46.5154 182.014 49.2487 184.77 49.2352 188.143C49.2209 191.501 46.4755 194.235 43.1166 194.235ZM43.1356 183.769C40.7289 183.769 38.7798 185.711 38.7689 188.098C38.7588 190.494 40.7005 192.453 43.0976 192.466H43.1166C45.5043 192.466 47.4554 190.523 47.4656 188.136C47.4758 185.737 45.5334 183.78 43.1356 183.769Z" fill="white"/>
<path d="M84.5814 60C83.4036 60 82.4052 59.6655 81.6132 59.0049C81.2609 58.7114 80.9428 58.3953 80.6653 58.062C78.9486 59.2275 76.3878 59.8404 73.2066 59.8404C72.7637 59.8404 72.3051 59.8291 71.8286 59.8047C69.1156 59.6675 67.2517 58.2545 66.6599 55.9087C65.2384 55.6837 63.757 54.9935 62.3505 53.8973C60.1615 52.1908 59.4584 49.6877 60.4229 47.031C61.4266 44.2673 64.03 42.1015 66.3505 42.1015C66.726 42.1015 67.0854 42.1549 67.4283 42.2611C67.4576 41.2007 67.6896 39.4236 68.8129 38.2252C70.1107 36.8367 72.205 36.6177 74.9622 37.6228C76.0081 38.003 76.9201 38.4827 77.6794 39.0502C78.9887 37.8057 80.6231 37.1002 82.2323 37.1002C83.4375 37.1002 84.6091 37.4776 85.715 38.22C88.1856 39.8804 89.6352 42.353 89.6712 44.9214C91.1356 45.0165 92.502 45.7272 93.6418 46.9909C95.177 48.6943 95.4193 50.9206 94.325 53.258C92.6443 56.8496 88.0913 60 84.5814 60ZM81.4941 57.3918C81.7344 57.6814 82.0098 57.9553 82.3175 58.212C82.9069 58.7037 83.6691 58.9532 84.5814 58.9532C87.6654 58.9532 91.8407 56.0318 93.3424 52.8253C93.9855 51.452 94.4177 49.4447 92.8288 47.6808C91.8726 46.6196 90.7895 46.0436 89.6075 45.967C89.2659 48.4212 87.6083 50.224 85.4458 50.4221C85.3362 50.4321 85.2328 50.4365 85.1356 50.4365C85.1356 50.4365 85.1356 50.4365 85.1343 50.4365C84.0115 50.4365 83.5959 49.7892 83.5822 49.184C83.5483 47.7554 85.8258 45.3413 88.5918 44.9619C88.5686 42.7236 87.2874 40.5518 85.0984 39.0815C84.1769 38.4618 83.2121 38.1478 82.2315 38.1478C80.9271 38.1478 79.5859 38.7253 78.4883 39.7468C80.2038 41.4514 80.4821 43.4932 79.9602 44.838C79.59 45.7877 78.8299 46.3789 77.9738 46.3789C77.9738 46.3789 77.9738 46.3789 77.9726 46.3789C77.4329 46.3789 76.8853 46.1459 76.389 45.7051C74.8274 44.3166 75.437 41.7337 76.9585 39.8347C76.2964 39.3502 75.499 38.9371 74.5817 38.6026C72.2778 37.764 70.6078 37.8642 69.6115 38.9287C68.2736 40.3581 68.5213 43.022 68.5242 43.0484C68.5441 43.249 68.4432 43.4431 68.2649 43.5474C68.0867 43.6516 67.8613 43.6476 67.6892 43.5349C67.2885 43.2782 66.8385 43.1483 66.3501 43.1483C64.4903 43.1483 62.2876 45.0462 61.4406 47.3796C60.9683 48.679 60.5465 51.1484 63.0263 53.0812C64.1694 53.9719 65.3513 54.5619 66.4824 54.8094C66.3485 53.0322 66.8766 51.0883 67.8435 49.9657C68.3212 49.4106 68.8696 49.117 69.4291 49.117C69.8328 49.117 70.432 49.2746 70.9949 50.027C71.9639 51.3205 72.1558 52.7543 71.5222 53.9595C70.8716 55.1968 69.487 55.9492 67.8013 55.9881C68.2294 57.2948 69.3026 58.6283 71.884 58.7591C75.528 58.936 78.3063 58.3921 80.0545 57.1977C78.978 55.3604 79.1194 53.3836 79.7824 52.1699C80.1757 51.4492 80.7344 51.0361 81.3134 51.0361C81.7121 51.0361 82.4362 51.2354 82.8031 52.5678C83.3014 54.3734 82.8237 56.1064 81.4941 57.3918ZM81.3146 52.0837C81.2133 52.0837 80.9676 52.2401 80.7377 52.6604C80.2381 53.5745 80.1273 55.0584 80.8886 56.4931C81.8291 55.49 82.1393 54.213 81.7605 52.8385C81.5909 52.2229 81.3771 52.0837 81.3146 52.0837ZM67.5792 54.9417C68.9543 54.9838 70.071 54.4171 70.5623 53.4846C71.004 52.642 70.8448 51.6064 70.1235 50.6431C69.9601 50.4241 69.707 50.1646 69.4308 50.1646C69.205 50.1646 68.9361 50.3322 68.6735 50.6371C67.9651 51.46 67.3791 53.2003 67.5792 54.9417ZM88.5049 46.0364C86.2865 46.4483 84.6438 48.3871 84.6616 49.1591C84.6637 49.2449 84.6678 49.3893 85.1352 49.3893C85.1364 49.3893 85.1364 49.3893 85.1364 49.3893C85.2017 49.3893 85.2712 49.3861 85.3453 49.3793C86.9346 49.2341 88.1724 47.8933 88.5049 46.0364ZM77.7679 40.5293C76.4627 42.1745 76.1558 44.0764 77.1194 44.9323C77.8576 45.5876 78.5996 45.367 78.9499 44.469C79.344 43.4547 79.107 41.8922 77.7679 40.5293Z" fill="white"/>
<path d="M329.565 75.6587C329.563 75.6587 329.561 75.6587 329.559 75.6587C329.07 75.6553 328.676 75.2582 328.68 74.7688L328.77 59.8797C328.773 59.3924 329.169 59 329.654 59C329.656 59 329.658 59 329.66 59C330.149 59.0034 330.543 59.4005 330.539 59.8899L330.449 74.779C330.446 75.2663 330.05 75.6587 329.565 75.6587Z" fill="white"/>
<path d="M323.565 72.4081C323.287 72.4081 323.012 72.2766 322.839 72.0299C322.559 71.6293 322.657 71.0777 323.059 70.7978L335.354 62.2258C335.751 61.9513 336.304 62.0428 336.586 62.4454C336.866 62.8459 336.768 63.3976 336.367 63.6775L324.071 72.2495C323.917 72.3566 323.741 72.4081 323.565 72.4081Z" fill="white"/>
<path d="M334.36 73.0352C334.125 73.0352 333.891 72.9417 333.717 72.7587L324.421 62.9356C324.086 62.5812 324.102 62.02 324.456 61.6845C324.812 61.3456 325.37 61.3646 325.707 61.7191L335.003 71.5422C335.338 71.8966 335.323 72.4578 334.968 72.7933C334.798 72.9559 334.578 73.0352 334.36 73.0352Z" fill="white"/>
<path d="M321.884 68.0562C321.399 68.0562 321.005 67.6659 321 67.1799C320.995 66.6906 321.387 66.2921 321.876 66.2867L336.197 66.1504C336.772 66.145 337.085 66.5374 337.09 67.0268C337.096 67.5154 336.703 67.9146 336.214 67.92L321.893 68.0562C321.89 68.0562 321.889 68.0562 321.884 68.0562Z" fill="white"/>
<defs>
<linearGradient id="paint0_linear_2023_3391" x1="182.5" y1="-6.3787" x2="182.5" y2="306.017" gradientUnits="userSpaceOnUse">
<stop stop-color="#6D13FF"/>
<stop offset="0.0490798" stop-color="#9859FF"/>
<stop offset="0.898447" stop-color="#9859FF"/>
<stop offset="1" stop-color="#6D13FF"/>
</linearGradient>
</defs>
</svg>

<svg width="365" height="294" fill="none" xmlns="http://www.w3.org/2000/svg"><rect y=".154" width="365" height="293" rx="18" fill="url(#a)"/><path d="M43.117 194.235h-.026a6.127 6.127 0 0 1-6.09-6.144c.013-3.359 2.757-6.091 6.116-6.091 3.398.014 6.132 2.77 6.118 6.143-.014 3.358-2.76 6.092-6.118 6.092Zm.019-10.466c-2.407 0-4.356 1.942-4.367 4.329a4.357 4.357 0 0 0 4.329 4.368h.019a4.358 4.358 0 0 0 4.349-4.33 4.353 4.353 0 0 0-4.33-4.367ZM84.581 60c-1.177 0-2.176-.334-2.968-.995a7.373 7.373 0 0 1-.948-.943c-1.716 1.166-4.277 1.778-7.458 1.778-.443 0-.902-.01-1.378-.035-2.713-.138-4.577-1.55-5.17-3.896-1.42-.225-2.902-.916-4.309-2.012-2.189-1.706-2.892-4.21-1.927-6.866 1.004-2.764 3.607-4.93 5.927-4.93.376 0 .735.054 1.078.16.03-1.06.262-2.837 1.385-4.036 1.298-1.388 3.392-1.607 6.15-.602 1.045.38 1.957.86 2.716 1.427 1.31-1.244 2.944-1.95 4.553-1.95 1.206 0 2.377.378 3.483 1.12 2.47 1.66 3.92 4.133 3.956 6.701 1.465.096 2.831.806 3.97 2.07 1.536 1.703 1.778 3.93.684 6.267C92.645 56.85 88.091 60 84.581 60Zm-3.087-2.608c.24.29.516.563.823.82.59.492 1.352.741 2.264.741 3.084 0 7.26-2.921 8.761-6.128.644-1.373 1.076-3.38-.513-5.144-.956-1.061-2.04-1.637-3.221-1.714-.342 2.454-2 4.257-4.162 4.455-.11.01-.213.015-.31.015h-.002c-1.123 0-1.538-.648-1.552-1.253-.034-1.429 2.244-3.843 5.01-4.222-.023-2.238-1.305-4.41-3.494-5.88-.921-.62-1.886-.934-2.867-.934-1.304 0-2.645.577-3.743 1.599 1.716 1.704 1.994 3.746 1.472 5.091-.37.95-1.13 1.54-1.986 1.54h-.001c-.54 0-1.088-.232-1.584-.673-1.562-1.388-.952-3.971.57-5.87-.663-.485-1.46-.898-2.377-1.232-2.304-.839-3.974-.739-4.97.326-1.338 1.43-1.09 4.093-1.088 4.12a.52.52 0 0 1-.26.498.55.55 0 0 1-.575-.012 2.44 2.44 0 0 0-1.339-.387c-1.86 0-4.062 1.898-4.91 4.232-.472 1.299-.893 3.768 1.586 5.701 1.143.89 2.325 1.48 3.456 1.728-.133-1.777.395-3.72 1.362-4.843.477-.555 1.026-.849 1.585-.849.404 0 1.003.158 1.566.91.969 1.294 1.16 2.727.527 3.932-.65 1.238-2.035 1.99-3.72 2.03.427 1.306 1.5 2.64 4.082 2.77 3.644.177 6.422-.367 8.17-1.561-1.076-1.838-.935-3.814-.272-5.028.394-.72.952-1.134 1.531-1.134.4 0 1.123.2 1.49 1.532.498 1.805.02 3.538-1.309 4.824Zm-.18-5.308c-.1 0-.346.156-.576.576-.5.915-.61 2.398.15 3.833.941-1.003 1.251-2.28.872-3.654-.17-.616-.383-.755-.445-.755ZM67.58 54.942c1.375.042 2.492-.525 2.983-1.457.442-.843.283-1.879-.438-2.842-.164-.219-.417-.478-.693-.478-.226 0-.495.167-.757.472-.709.823-1.295 2.563-1.095 4.305Zm20.926-8.906c-2.218.412-3.861 2.351-3.843 3.123.002.086.006.23.473.23h.001c.066 0 .135-.003.21-.01 1.589-.145 2.826-1.486 3.159-3.343ZM77.768 40.53c-1.305 1.645-1.612 3.547-.649 4.403.739.656 1.48.435 1.83-.463.395-1.014.158-2.577-1.181-3.94ZM329.565 75.659h-.006a.883.883 0 0 1-.879-.89l.09-14.89a.885.885 0 0 1 .884-.879h.006c.489.003.883.4.879.89l-.09 14.889a.885.885 0 0 1-.884.88Z" fill="#fff"/><path d="M323.565 72.408a.885.885 0 0 1-.506-1.61l12.295-8.572a.884.884 0 1 1 1.013 1.452l-12.296 8.572a.882.882 0 0 1-.506.158Z" fill="#fff"/><path d="M334.36 73.035a.885.885 0 0 1-.643-.276l-9.296-9.823a.887.887 0 0 1 .035-1.252.883.883 0 0 1 1.251.035l9.296 9.823a.886.886 0 0 1-.643 1.493Z" fill="#fff"/><path d="M321.884 68.056a.884.884 0 0 1-.008-1.77l14.321-.136c.575-.005.888.387.893.877a.884.884 0 0 1-.876.893l-14.321.136h-.009Z" fill="#fff"/><defs><linearGradient id="a" x1="182.5" y1="-6.379" x2="182.5" y2="306.017" gradientUnits="userSpaceOnUse"><stop stop-color="#6D13FF"/><stop offset=".049" stop-color="#9859FF"/><stop offset=".898" stop-color="#9859FF"/><stop offset="1" stop-color="#6D13FF"/></linearGradient></defs></svg>
